frontend/ui/play/assets/images/mpchess/wR.svg

<?xml version="1.0" encoding="UTF-8"?>
<svg xmlns="http://www.w3.org/2000/svg" xmlns:xlink="http://www.w3.org/1999/xlink" width="150px" height="150px" viewBox="0 0 150 150" version="1.1">
<g id="surface1">
<path style="fill-rule:nonzero;fill:rgb(100%,100%,100%);fill-opacity:1;stroke-width:0.386043;stroke-linecap:butt;stroke-linejoin:miter;stroke:rgb(0%,0%,0%);stroke-opacity:1;stroke-miterlimit:4;" d="M 6.541908 294.177949 C 7.620095 294.177949 7.667056 295.036081 7.667056 295.672992 L 2.06911 295.672992 C 2.06911 295.022962 2.115113 294.177949 3.19306 294.177949 Z M 6.541908 294.177949 " transform="matrix(16.303413,0,0,15.185602,-3.538245,-4357.812167)"/>
<path style="fill-rule:nonzero;fill:rgb(100%,100%,100%);fill-opacity:1;stroke-width:0.386043;stroke-linecap:butt;stroke-linejoin:miter;stroke:rgb(0%,0%,0%);stroke-opacity:1;stroke-miterlimit:4;" d="M 6.740055 294.17692 L 6.172929 290.923942 L 3.568988 290.923942 L 3.008091 294.17692 Z M 6.740055 294.17692 " transform="matrix(16.303413,0,0,15.185602,-3.538245,-4357.812167)"/>
<path style="fill-rule:nonzero;fill:rgb(100%,100%,100%);fill-opacity:1;stroke-width:0.386043;stroke-linecap:butt;stroke-linejoin:miter;stroke:rgb(0%,0%,0%);stroke-opacity:1;stroke-miterlimit:4;" d="M 6.66003 289.341954 L 5.860015 289.119961 L 5.687026 289.559059 L 5.359017 289.557002 L 5.359017 288.932952 L 4.357023 288.94993 L 4.357023 289.557002 L 4.064954 289.557002 L 3.855067 289.12099 L 3.071105 289.428127 C 3.071105 289.428127 3.062959 290.957897 3.475066 290.948894 L 6.256069 290.948894 C 6.667936 290.948894 6.66003 289.342983 6.66003 289.342983 Z M 6.66003 289.341954 " transform="matrix(16.303413,0,0,15.185602,-3.538245,-4357.812167)"/>
</g>
</svg>

<svg xmlns="http://www.w3.org/2000/svg" width="10mm" height="10mm" viewBox="0 0 10 10"><g style="fill:#fff;fill-opacity:1"><g style="fill:#fff;fill-opacity:1;stroke-width:.09651081;stroke-miterlimit:4;stroke-dasharray:none"><path d="M6.542 294.178c1.078 0 1.125.858 1.125 1.495H2.069c0-.65.046-1.495 1.124-1.495z" style="fill:#fff;fill-opacity:1;stroke:#000;stroke-width:.38604325;stroke-linecap:butt;stroke-linejoin:miter;stroke-miterlimit:4;stroke-dasharray:none;stroke-opacity:1" transform="matrix(1.07361 0 0 1 -.233 -286.97)"/><path d="m6.74 294.177-.567-3.253H3.569l-.561 3.253z" style="fill:#fff;fill-opacity:1;stroke:#000;stroke-width:.38604325;stroke-linecap:butt;stroke-linejoin:miter;stroke-opacity:1;stroke-miterlimit:4;stroke-dasharray:none" transform="matrix(1.07361 0 0 1 -.233 -286.97)"/><path d="m6.66 289.342-.8-.222-.173.439-.328-.002v-.624l-1.002.017v.607h-.292l-.21-.436-.784.307s-.008 1.53.404 1.521h2.781c.412 0 .404-1.606.404-1.606z" style="fill:#fff;fill-opacity:1;stroke:#000;stroke-width:.38604325;stroke-linecap:butt;stroke-linejoin:miter;stroke-opacity:1;stroke-miterlimit:4;stroke-dasharray:none" transform="matrix(1.07361 0 0 1 -.233 -286.97)"/></g></g></svg>
